public/assets/elements/divein1.svg

<svg fill="none" height="682" viewBox="0 0 364 682" width="364" xmlns="http://www.w3.org/2000/svg" xmlns:xlink="http://www.w3.org/1999/xlink"><filter id="a" color-interpolation-filters="sRGB" filterUnits="userSpaceOnUse" height="626" width="241" x="53.5" y="55.5"><feFlood flood-opacity="0" result="BackgroundImageFix"/><feColorMatrix in="SourceAlpha" result="hardAlpha" type="matrix" values="0 0 0 0 0 0 0 0 0 0 0 0 0 0 0 0 0 0 127 0"/><feOffset dx="-1" dy="1"/><feGaussianBlur stdDeviation="2"/><feComposite in2="hardAlpha" operator="out"/><feColorMatrix type="matrix" values="0 0 0 0 1 0 0 0 0 1 0 0 0 0 1 0 0 0 0.9 0"/><feBlend in2="BackgroundImageFix" mode="normal" result="effect1_dropShadow_3131_130"/><feBlend in="SourceGraphic" in2="effect1_dropShadow_3131_130" mode="normal" result="shape"/></filter><filter id="b" color-interpolation-filters="sRGB" filterUnits="userSpaceOnUse" height="44.6521" width="92.1304" x="271.435" y="558.435"><feFlood flood-opacity="0" result="BackgroundImageFix"/><feBlend in="SourceGraphic" in2="BackgroundImageFix" mode="normal" result="shape"/><feColorMatrix in="SourceAlpha" result="hardAlpha" type="matrix" values="0 0 0 0 0 0 0 0 0 0 0 0 0 0 0 0 0 0 127 0"/><feOffset dy="7.91304"/><feComposite in2="hardAlpha" k2="-1" k3="1" operator="arithmetic"/><feColorMatrix type="matrix" values="0 0 0 0 1 0 0 0 0 1 0 0 0 0 1 0 0 0 1 0"/><feBlend in2="shape" mode="normal" result="effect1_innerShadow_3131_130"/></filter><linearGradient id="c" gradientUnits="userSpaceOnUse" x1="506.283" x2="412.701" y1="339.857" y2="779.643"><stop offset="0" stop-color="#fff"/><stop offset="1" stop-color="#f7cdf3"/></linearGradient><linearGradient id="d" gradientUnits="userSpaceOnUse" x1="323.024" x2="297.969" y1="563.596" y2="605.717"><stop offset="0" stop-color="#131d42"/><stop offset="1" stop-color="#3f07ed"/></linearGradient><g filter="url(#a)"><path d="m59 504.5v86.666c0 23.656 19.1775 42.834 42.834 42.834h23.78c12.916 0 23.386 10.47 23.386 23.386 0 10.28 8.334 18.614 18.614 18.614h23.691c11.982 0 21.695-9.713 21.695-21.695v-70.805c0-21.539 17.461-39 39-39s39-17.461 39-39v-171.931c0-10.609-4.214-20.783-11.716-28.285l-27.068-27.068c-7.502-7.502-17.676-11.716-28.285-11.716h-77.362c-10.609 0-20.783-4.214-28.285-11.716l-40.0683-40.068c-7.5014-7.502-11.7157-17.676-11.7157-28.285v-87.431c0-22.0914 17.9086-40 40-40h42.5" stroke="url(#c)" stroke-dasharray="2 2" stroke-linecap="round"/></g><path d="m114.116 506.368-13.632 13.632v-34.08l13.632-13.632z" fill="#353b8b" stroke="#000" stroke-linejoin="round" stroke-width="1.01515"/><path d="m114.116 472.288-13.632 13.632h-99.41177l13.63197-13.632z" fill="#353b8b" stroke="#000" stroke-linejoin="round" stroke-width="1.01515"/><path d="m100.484 520h-99.484168l.000003-34.515h99.485165z" fill="#353b8b" stroke="#000" stroke-linejoin="round" stroke-width="1.01515"/><g fill="#f7cdf3"><path d="m40.9099 464.903c0 .226.1826.408.4079.408.2252 0 .4079-.182.4079-.408zm.8158 0v-7.117h-.8158v7.117zm-10.3872-7.117v27.214h.8157v-27.214zm5.1936-5.194c-2.8684 0-5.1936 2.325-5.1936 5.194h.8157c0-2.418 1.96-4.378 4.3779-4.378zm5.1936 5.194c0-2.869-2.3253-5.194-5.1936-5.194v.816c2.4178 0 4.3778 1.96 4.3778 4.378z"/><path d="m28.7283 464.903c0 .226.1826.408.4078.408.2253 0 .4079-.182.4079-.408zm.8157 0v-7.335h-.8157v7.335zm-9.9521-7.335v27.432h.8157v-27.432zm4.976-4.976c-2.7482 0-4.976 2.228-4.976 4.976h.8157c0-2.297 1.8627-4.16 4.1603-4.16zm4.9761 4.976c0-2.748-2.2278-4.976-4.9761-4.976v.816c2.2977 0 4.1604 1.863 4.1604 4.16z"/><path d="m31.7465 465.59c.2253 0 .4079-.183.4079-.408s-.1826-.408-.4079-.408zm-11.7467 0h11.7467v-.816h-11.7467z"/><path d="m31.7465 473.421c.2253 0 .4079-.183.4079-.408s-.1826-.408-.4079-.408zm-11.7467 0h11.7467v-.816h-11.7467z"/><path d="m31.7465 481.252c.2253 0 .4079-.182.4079-.408 0-.225-.1826-.408-.4079-.408zm-11.7467 0h11.7467v-.816h-11.7467z"/></g><path d="m243.117 54.368-13.632 13.632v-34.08l13.632-13.632z" fill="#131d42" stroke="#000" stroke-linejoin="round" stroke-width="1.01515"/><path d="m243.117 20.2879-13.632 13.632h-99.413l13.632-13.632z" fill="#131d42" stroke="#000" stroke-linejoin="round" stroke-width="1.01515"/><path d="m229.485 67.9998-99.485-.0001v-34.515h99.485z" fill="#131d42" stroke="#000" stroke-linejoin="round" stroke-width="1.01515"/><g fill="#35ff92"><path d="m174.91 12.9034c0 .2253.183.4079.408.4079s.408-.1826.408-.4079zm.816 0v-7.11768h-.816v7.11768zm-10.387-7.11768v27.21428h.816v-27.21428zm5.193-5.193594c-2.868 0-5.193 2.325254-5.193 5.193594h.816c0-2.41782 1.96-4.37785 4.377-4.37785zm5.194 5.193594c0-2.86835-2.325-5.193594-5.194-5.193594v.815744c2.418 0 4.378 1.96003 4.378 4.37785z"/><path d="m162.729 12.9034c0 .2253.182.4079.408.4079.225 0 .407-.1826.407-.4079zm.815 0v-7.33521h-.815v7.33521zm-9.952-7.33521v27.43181h.816v-27.43181zm4.976-4.976064c-2.748 0-4.976 2.227864-4.976 4.976064h.816c0-2.29768 1.863-4.16032 4.16-4.16032zm4.976 4.976064c0-2.74821-2.227-4.976064-4.976-4.976064v.815744c2.298 0 4.161 1.86264 4.161 4.16032z"/><path d="m165.747 13.5898c.225 0 .408-.1827.408-.4079 0-.2253-.183-.4079-.408-.4079zm-11.747 0h11.747v-.8158h-11.747z"/><path d="m165.747 21.4208c.225 0 .408-.1826.408-.4079 0-.2252-.183-.4078-.408-.4078zm-11.747 0h11.747v-.8157h-11.747z"/><path d="m165.747 29.2521c.225 0 .408-.1826.408-.4079 0-.2252-.183-.4078-.408-.4078zm-11.747 0h11.747v-.8157h-11.747z"/></g><g filter="url(#b)"><ellipse cx="317.5" cy="580.761" fill="url(#d)" rx="45.5" ry="21.7609"/></g><ellipse cx="317.5" cy="580.761" rx="45.5" ry="21.7609" stroke="#131d42" stroke-linejoin="round" stroke-width="1.13043"/><circle cx="333.5" cy="567.5" fill="#fff" r="8.5" stroke="#000"/><circle cx="286.5" cy="518.5" fill="#fff" r="8.5" stroke="#000"/><circle cx="342.5" cy="501.5" fill="#fff" r="8.5" stroke="#000"/></svg>

<svg width="364" height="682" viewBox="0 0 364 682" fill="none" xmlns="http://www.w3.org/2000/svg">
    <g filter="url(#filter0_d_3358_130)">
        <path class="svg-line delay1 speed5" d="M59 504.5V591.166C59 614.822 78.1775 634 101.834 634H125.614C138.53 634 149 644.47 149 657.386V657.386C149 667.666 157.334 676 167.614 676H191.305C203.287 676 213 666.287 213 654.305V583.5C213 561.961 230.461 544.5 252 544.5V544.5C273.539 544.5 291 527.039 291 505.5V333.569C291 322.96 286.786 312.786 279.284 305.284L252.216 278.216C244.714 270.714 234.54 266.5 223.931 266.5H146.569C135.96 266.5 125.786 262.286 118.284 254.784L78.2157 214.716C70.7143 207.214 66.5 197.04 66.5 186.431V99C66.5 76.9086 84.4086 59 106.5 59H149" stroke="url(#paint0_linear_3358_130)" stroke-linecap="round" stroke-dasharray="2 2"/>
    </g>
    <path d="M114.116 506.368L100.484 520L100.484 485.92L114.116 472.288L114.116 506.368Z" fill="#353B8B" stroke="black" stroke-width="1.01515" stroke-linejoin="round"/>
    <path d="M114.116 472.288L100.484 485.92L1.07223 485.92L14.7042 472.288L114.116 472.288Z" fill="#353B8B" stroke="black" stroke-width="1.01515" stroke-linejoin="round"/>
    <path d="M100.484 520L0.999832 520L0.999835 485.485L100.485 485.485L100.484 520Z" fill="#353B8B" stroke="black" stroke-width="1.01515" stroke-linejoin="round"/>
    <path d="M40.9099 464.903C40.9099 465.129 41.0925 465.311 41.3178 465.311C41.543 465.311 41.7257 465.129 41.7257 464.903H40.9099ZM41.7257 464.903V457.786H40.9099V464.903H41.7257ZM31.3385 457.786V485H32.1542V457.786H31.3385ZM36.5321 452.592C33.6637 452.592 31.3385 454.917 31.3385 457.786H32.1542C32.1542 455.368 34.1142 453.408 36.5321 453.408V452.592ZM41.7257 457.786C41.7257 454.917 39.4004 452.592 36.5321 452.592V453.408C38.9499 453.408 40.9099 455.368 40.9099 457.786H41.7257Z" fill="#F7CDF3"/>
    <path d="M28.7283 464.903C28.7283 465.129 28.9109 465.311 29.1361 465.311C29.3614 465.311 29.544 465.129 29.544 464.903H28.7283ZM29.544 464.903V457.568H28.7283V464.903H29.544ZM19.5919 457.568V485H20.4076V457.568H19.5919ZM24.5679 452.592C21.8197 452.592 19.5919 454.82 19.5919 457.568H20.4076C20.4076 455.271 22.2703 453.408 24.5679 453.408V452.592ZM29.544 457.568C29.544 454.82 27.3162 452.592 24.5679 452.592V453.408C26.8656 453.408 28.7283 455.271 28.7283 457.568H29.544Z" fill="#F7CDF3"/>
    <path d="M31.7465 465.59C31.9718 465.59 32.1544 465.407 32.1544 465.182C32.1544 464.957 31.9718 464.774 31.7465 464.774V465.59ZM19.9998 465.59H31.7465V464.774H19.9998V465.59Z" fill="#F7CDF3"/>
    <path d="M31.7465 473.421C31.9718 473.421 32.1544 473.238 32.1544 473.013C32.1544 472.788 31.9718 472.605 31.7465 472.605V473.421ZM19.9998 473.421H31.7465V472.605H19.9998V473.421Z" fill="#F7CDF3"/>
    <path d="M31.7465 481.252C31.9718 481.252 32.1544 481.07 32.1544 480.844C32.1544 480.619 31.9718 480.436 31.7465 480.436V481.252ZM19.9998 481.252H31.7465V480.436H19.9998V481.252Z" fill="#F7CDF3"/>
    <path d="M243.117 54.368L229.485 68L229.485 33.92L243.117 20.288L243.117 54.368Z" fill="#131D42" stroke="black" stroke-width="1.01515" stroke-linejoin="round"/>
    <path d="M243.117 20.2879L229.485 33.9199L130.072 33.9199L143.704 20.2879L243.117 20.2879Z" fill="#131D42" stroke="black" stroke-width="1.01515" stroke-linejoin="round"/>
    <path d="M229.485 67.9998L130 67.9997L130 33.4847L229.485 33.4847L229.485 67.9998Z" fill="#131D42" stroke="black" stroke-width="1.01515" stroke-linejoin="round"/>
    <path d="M174.91 12.9034C174.91 13.1287 175.093 13.3113 175.318 13.3113C175.543 13.3113 175.726 13.1287 175.726 12.9034H174.91ZM175.726 12.9034V5.78572H174.91V12.9034H175.726ZM165.339 5.78572V33H166.155V5.78572H165.339ZM170.532 0.592126C167.664 0.592126 165.339 2.91738 165.339 5.78572H166.155C166.155 3.3679 168.115 1.40787 170.532 1.40787V0.592126ZM175.726 5.78572C175.726 2.91737 173.401 0.592126 170.532 0.592126V1.40787C172.95 1.40787 174.91 3.3679 174.91 5.78572H175.726Z" fill="#35FF92"/>
    <path d="M162.729 12.9034C162.729 13.1287 162.911 13.3113 163.137 13.3113C163.362 13.3113 163.544 13.1287 163.544 12.9034H162.729ZM163.544 12.9034V5.56819H162.729V12.9034H163.544ZM153.592 5.56819V33H154.408V5.56819H153.592ZM158.568 0.592126C155.82 0.592126 153.592 2.81999 153.592 5.56819H154.408C154.408 3.27051 156.271 1.40787 158.568 1.40787V0.592126ZM163.544 5.56819C163.544 2.81998 161.317 0.592126 158.568 0.592126V1.40787C160.866 1.40787 162.729 3.27051 162.729 5.56819H163.544Z" fill="#35FF92"/>
    <path d="M165.747 13.5898C165.972 13.5898 166.155 13.4071 166.155 13.1819C166.155 12.9566 165.972 12.774 165.747 12.774V13.5898ZM154 13.5898H165.747V12.774H154V13.5898Z" fill="#35FF92"/>
    <path d="M165.747 21.4208C165.972 21.4208 166.155 21.2382 166.155 21.0129C166.155 20.7877 165.972 20.6051 165.747 20.6051V21.4208ZM154 21.4208H165.747V20.6051H154V21.4208Z" fill="#35FF92"/>
    <path d="M165.747 29.2521C165.972 29.2521 166.155 29.0695 166.155 28.8442C166.155 28.619 165.972 28.4364 165.747 28.4364V29.2521ZM154 29.2521H165.747V28.4364H154V29.2521Z" fill="#35FF92"/>
    <g filter="url(#filter1_i_3358_130)">
        <ellipse cx="317.5" cy="580.761" rx="45.5" ry="21.7609" fill="url(#paint1_linear_3358_130)"/>
    </g>
    <ellipse cx="317.5" cy="580.761" rx="45.5" ry="21.7609" stroke="#131D42" stroke-width="1.13043" stroke-linejoin="round"/>
    <circle cx="333.5" cy="567.5" r="8.5" fill="white" stroke="black" class="svg-floating speed1"/>
    <circle cx="286.5" cy="518.5" r="8.5" fill="white" stroke="black"/>
    <circle cx="342.5" cy="501.5" r="8.5" fill="white" stroke="black"/>
    <defs>
        <filter id="filter0_d_3358_130" x="53.5" y="55.5" width="241" height="626" filterUnits="userSpaceOnUse" color-interpolation-filters="sRGB">
            <feFlood flood-opacity="0" result="BackgroundImageFix"/>
            <feColorMatrix in="SourceAlpha" type="matrix" values="0 0 0 0 0 0 0 0 0 0 0 0 0 0 0 0 0 0 127 0" result="hardAlpha"/>
            <feOffset dx="-1" dy="1"/>
            <feGaussianBlur stdDeviation="2"/>
            <feComposite in2="hardAlpha" operator="out"/>
            <feColorMatrix type="matrix" values="0 0 0 0 1 0 0 0 0 1 0 0 0 0 1 0 0 0 0.9 0"/>
            <feBlend mode="normal" in2="BackgroundImageFix" result="effect1_dropShadow_3358_130"/>
            <feBlend mode="normal" in="SourceGraphic" in2="effect1_dropShadow_3358_130" result="shape"/>
        </filter>
        <filter id="filter1_i_3358_130" x="271.435" y="558.435" width="92.1304" height="44.6521" filterUnits="userSpaceOnUse" color-interpolation-filters="sRGB">
            <feFlood flood-opacity="0" result="BackgroundImageFix"/>
            <feBlend mode="normal" in="SourceGraphic" in2="BackgroundImageFix" result="shape"/>
            <feColorMatrix in="SourceAlpha" type="matrix" values="0 0 0 0 0 0 0 0 0 0 0 0 0 0 0 0 0 0 127 0" result="hardAlpha"/>
            <feOffset dy="7.91304"/>
            <feComposite in2="hardAlpha" operator="arithmetic" k2="-1" k3="1"/>
            <feColorMatrix type="matrix" values="0 0 0 0 1 0 0 0 0 1 0 0 0 0 1 0 0 0 1 0"/>
            <feBlend mode="normal" in2="shape" result="effect1_innerShadow_3358_130"/>
        </filter>
        <linearGradient id="paint0_linear_3358_130" x1="506.283" y1="339.857" x2="412.701" y2="779.643" gradientUnits="userSpaceOnUse">
            <stop stop-color="white"/>
            <stop offset="1" stop-color="#F7CDF3"/>
        </linearGradient>
        <linearGradient id="paint1_linear_3358_130" x1="323.024" y1="563.596" x2="297.969" y2="605.717" gradientUnits="userSpaceOnUse">
            <stop stop-color="#131D42"/>
            <stop offset="1" stop-color="#3F07ED"/>
        </linearGradient>
    </defs>
</svg>
